X: 29
T: Miss McLeod's
Z: Jim Sime
S: https://thesession.org/tunes/75#setting52911
R: reel
M: 4/4
L: 1/8
K: Amaj
|:cB|"A"A2 a2 "D"fefa|"A"c2 cB "F#m"c2cB|"A"A2 a2 "D"fefa|"E"B2 BA "E7"BdcB|
"A"A2 a2 "D"fefa|"A"c2 cB "F#m"c2 e2|"D"f2 fg f2ef|"A"afec "E7"Bd:|
|:cB|"A"ABcd eAcA|c2 cB "F#m"c2cB|"A"ABcd eAcA| "E7"B2 BA BdcB|
"A"ABcd eAcA|c2 cB "F#m" c2 e2|"D"f2 fe f2ef|"A"afec "E7"Bd:|

